icons/git-repository-fill.svg

<svg viewBox="0 0 24 24" fill="currentColor" xmlns="http://www.w3.org/2000/svg"><path d="M13 21V23.5L10 21.5L7 23.5V21H6.5C4.567 21 3 19.433 3 17.5V5C3 3.34315 4.34315 2 6 2H20C20.5523 2 21 2.44772 21 3V20C21 20.5523 20.5523 21 20 21H13ZM7 19V17H13V19H19V16H6.5C5.67157 16 5 16.6716 5 17.5C5 18.3284 5.67157 19 6.5 19H7ZM7 5V7H9V5H7ZM7 8V10H9V8H7ZM7 11V13H9V11H7Z"/></svg>

<svg xmlns="http://www.w3.org/2000/svg" viewBox="0 0 24 24">
    <g>
        <path fill="none" d="M0 0h24v24H0z"/>
        <path d="M13 21v2.5l-3-2-3 2V21h-.5A3.5 3.5 0 0 1 3 17.5V5a3 3 0 0 1 3-3h14a1 1 0 0 1 1 1v17a1 1 0 0 1-1 1h-7zm-6-2v-2h6v2h6v-3H6.5a1.5 1.5 0 0 0 0 3H7zM7 5v2h2V5H7zm0 3v2h2V8H7zm0 3v2h2v-2H7z"/>
    </g>
</svg>
